X: 12560
T: Farewell To Milltown
R: reel
M: 4/4
K: Adorian
EAAG A3B|cdBG AGEF|G2DG EGDG|EG3 GEDG|
EAAG A3B|cAAG AGEF|G2dG eGdG|BedB A4:|
eaae a3b|c'abg agef|g3a gfef|gabg aged|
eaag a3b|c'abg agef|g3e edBA|BedB A4:|

